icons/paypal-fill.svg

<svg xmlns="http://www.w3.org/2000/svg" width="24" height="24" fill="none"><g clip-path="url(#a)"><g><path fill="#121212" d="M20.067 8.478C20.559 9.358 20.623 10.492 20.367 11.805C19.627 15.611 17.091 16.925 13.853 16.925H13.353C13.1614 16.9253 12.9761 16.9939 12.8306 17.1186C12.6851 17.2432 12.5887 17.4157 12.559 17.605L12.519 17.825L11.889 21.818L11.857 21.988C11.8272 22.1772 11.7309 22.3496 11.5853 22.474C11.4397 22.5985 11.2545 22.6669 11.063 22.667H7.71999C7.65023 22.667 7.58131 22.6518 7.51795 22.6226C7.4546 22.5934 7.39832 22.5509 7.35299 22.4978C7.30767 22.4448 7.27436 22.3826 7.25537 22.3155C7.23638 22.2484 7.23216 22.1779 7.24299 22.109L7.41799 21H8.93599L9.88599 14.98H11.271C15.949 14.98 19.021 12.777 20.067 8.478ZM17.107 3.388C17.869 4.256 18.09 5.198 17.859 6.673C17.84 6.796 17.819 6.913 17.797 7.033C17.062 10.806 14.708 12.479 10.841 12.479H8.95699C8.32699 12.479 7.78299 12.893 7.60299 13.481L7.58899 13.479L6.65899 19.373H3.12099C3.11355 19.373 3.1062 19.3713 3.09947 19.3681C3.09273 19.365 3.08678 19.3604 3.08201 19.3547C3.07725 19.3489 3.07379 19.3422 3.07189 19.335C3.06998 19.3279 3.06968 19.3203 3.07099 19.313L5.66899 2.803C5.70402 2.57934 5.81777 2.37555 5.98974 2.22833C6.16171 2.0811 6.38061 2.00013 6.60699 2H12.583C14.766 2 16.299 2.469 17.106 3.388H17.107Z"/></g></g><defs><clipPath id="a"><rect width="24" height="24" fill="white"/></clipPath></defs></svg>

<svg width="24" height="24" fill="none" xmlns="http://www.w3.org/2000/svg"><g clip-path="url(#a)"><path d="M20.067 8.478c.492.88.556 2.014.3 3.327-.74 3.806-3.276 5.12-6.514 5.12h-.5a.805.805 0 0 0-.794.68l-.04.22-.63 3.993-.032.17a.804.804 0 0 1-.794.679H7.72a.483.483 0 0 1-.477-.558L7.418 21h1.518l.95-6.02h1.385c4.678 0 7.75-2.203 8.796-6.502Zm-2.96-5.09c.762.868.983 1.81.752 3.285-.019.123-.04.24-.062.36-.735 3.773-3.089 5.446-6.956 5.446H8.957c-.63 0-1.174.414-1.354 1.002l-.014-.002-.93 5.894H3.121a.05.05 0 0 1-.022-.005.05.05 0 0 1-.027-.033.05.05 0 0 1-.001-.022l2.598-16.51A.95.95 0 0 1 6.607 2h5.976c2.183 0 3.716.469 4.523 1.388h.001Z" /></g><defs><clipPath id="a"><path fill="#fff" d="M0 0h24v24H0z"/></clipPath></defs></svg>
